X:110
T:Caithness Rant, The
R:Reel
B:The Athole Collection
M:C|
L:1/8
K:C Minor
e/d/|c2 BG FECD|E2EG BGEe|c2 BG FECc|eceG F/F/F F:|
|:d|efgf e/e/e ed|cBce f/f/f fg|1 efgf e/e/e ed|cBGB c/c/c c:|2
egfg efde|cBGB cede||

